src/actions/16/flatten.svg

<svg width="15.721" height="15.721" version="1.1" xmlns="http://www.w3.org/2000/svg">
 <path d="m3.9999 9.3661-0.95063 1.2686 4.9515 3.7124 4.9498-3.7124-0.95063-1.2686-3.9992 2.9994z" color="#000000" color-rendering="auto" dominant-baseline="auto" fill="#363636" fill-rule="evenodd" image-rendering="auto" shape-rendering="auto" solid-color="#000000" style="font-feature-settings:normal;font-variant-alternates:normal;font-variant-caps:normal;font-variant-ligatures:normal;font-variant-numeric:normal;font-variant-position:normal;isolation:auto;mix-blend-mode:normal;paint-order:markers fill stroke;shape-padding:0;text-decoration-color:#000000;text-decoration-line:none;text-decoration-style:solid;text-indent:0;text-orientation:mixed;text-transform:none;white-space:normal"/>
 <path d="m3.9999 5.3701-0.95063 1.2686 4.9515 3.714 4.9498-3.714-0.95063-1.2686-3.9992 3.001z" color="#000000" color-rendering="auto" dominant-baseline="auto" fill="#363636" fill-rule="evenodd" image-rendering="auto" shape-rendering="auto" solid-color="#000000" style="font-feature-settings:normal;font-variant-alternates:normal;font-variant-caps:normal;font-variant-ligatures:normal;font-variant-numeric:normal;font-variant-position:normal;isolation:auto;mix-blend-mode:normal;paint-order:markers fill stroke;shape-padding:0;text-decoration-color:#000000;text-decoration-line:none;text-decoration-style:solid;text-indent:0;text-orientation:mixed;text-transform:none;white-space:normal"/>
 <path d="m3.9999 1.3758-0.95063 1.2686 4.9515 3.714 4.9498-3.714-0.95063-1.2686-3.9992 3.001z" color="#000000" color-rendering="auto" dominant-baseline="auto" fill="#363636" fill-rule="evenodd" image-rendering="auto" shape-rendering="auto" solid-color="#000000" style="font-feature-settings:normal;font-variant-alternates:normal;font-variant-caps:normal;font-variant-ligatures:normal;font-variant-numeric:normal;font-variant-position:normal;isolation:auto;mix-blend-mode:normal;paint-order:markers fill stroke;shape-padding:0;text-decoration-color:#000000;text-decoration-line:none;text-decoration-style:solid;text-indent:0;text-orientation:mixed;text-transform:none;white-space:normal"/>
</svg>

<svg xmlns="http://www.w3.org/2000/svg" width="15.721" height="15.721">
    <path fill="#050505" fill-opacity=".7" fill-rule="evenodd" d="m4 9.366-.95 1.269L8 14.347l4.95-3.712L12 9.366l-4 3z" color="#000" style="font-feature-settings:normal;font-variant-alternates:normal;font-variant-caps:normal;font-variant-ligatures:normal;font-variant-numeric:normal;font-variant-position:normal;isolation:auto;mix-blend-mode:normal;paint-order:markers fill stroke;shape-padding:0;text-decoration-color:#000;text-decoration-line:none;text-decoration-style:solid;text-indent:0;text-orientation:mixed;text-transform:none;white-space:normal"/>
    <path fill="#050505" fill-opacity=".7" fill-rule="evenodd" d="M4 5.37 3.05 6.64 8 10.353l4.95-3.714L12 5.37 8 8.371z" color="#000" style="font-feature-settings:normal;font-variant-alternates:normal;font-variant-caps:normal;font-variant-ligatures:normal;font-variant-numeric:normal;font-variant-position:normal;isolation:auto;mix-blend-mode:normal;paint-order:markers fill stroke;shape-padding:0;text-decoration-color:#000;text-decoration-line:none;text-decoration-style:solid;text-indent:0;text-orientation:mixed;text-transform:none;white-space:normal"/>
    <path fill="#050505" fill-opacity=".7" fill-rule="evenodd" d="m4 1.376-.95 1.268L8 6.358l4.95-3.714L12 1.376l-4 3z" color="#000" style="font-feature-settings:normal;font-variant-alternates:normal;font-variant-caps:normal;font-variant-ligatures:normal;font-variant-numeric:normal;font-variant-position:normal;isolation:auto;mix-blend-mode:normal;paint-order:markers fill stroke;shape-padding:0;text-decoration-color:#000;text-decoration-line:none;text-decoration-style:solid;text-indent:0;text-orientation:mixed;text-transform:none;white-space:normal"/>
</svg>
